!!!OTL: ES REIT EIN HERR ZUM SCHLOESSLI AUF EINEM SCHOENEN ROESSLI
!!!ARE: Europa, Mitteleuropa, Deutschland, Mitteleuropa, Schweiz
!!!SCT: Z0161
!!!YEM: Copyright 1995, estate of Helmut Schaffrath.
**kern
*ICvox
*Ivox
*M4/4
*k[b-]
*F:
{4f
=1
8cc
8dd
8cc
8b-
8a
8b-
8a
8g
=2
4f
4a
4c}
{4f
=3
8cc
8dd
8cc
8b-
8a
8b-
8a
8g
=4
4f
4a
4c}
{4c
=5
4f
4f
4g
4g
=6
8a
8cc
8b-
8a
4g}
{4cc
=7
4a
4f
4g
4c
=8
8f
8a
8g
8e
4f}
==
!!!AGN: Kinder -, Wiegen - Lied
!!!ONB: ESAC (Essen Associative Code) Database: ZUCCAL
!!!AMT: simple quadruple
!!!AIN: vox
!!!EED: Helmut Schaffrath
!!!EEV: 1.0
*-
